X:180
T:Sir Tom in an Office
M:C
L:1/8
B:Thompson's Compleat Collection of 200 Favourite Country Dances, vol. 3 (London, 1773)
Z:Transcribed and edited by Flynn Titford-Mock, 2007
Z:abc's:AK/Fiddler's Companion
K:A
a2 (3cde f2 (3Bcd | ecAc BE "tr"E2 | a2 (3cde f2 (3Bcd | cABG A2 A,2 :|
|: f2 df eaga | (3ced (3cBA e2E2 | a2 (3cde f2 (3Bcd | cABG A2 A,2 :|

